Newaita-dark/apps/32/preferences-system-privacy.svg

<svg height="32" viewBox="0 0 32 32" width="32" xmlns="http://www.w3.org/2000/svg" xmlns:xlink="http://www.w3.org/1999/xlink"><linearGradient id="a"><stop offset="0" stop-opacity=".313726"/><stop offset=".222222" stop-opacity=".27451"/><stop offset="1" stop-opacity="0"/></linearGradient><radialGradient id="b" cx="450.908936" cy="189.579361" gradientTransform="matrix(.00000017 -.0781325 -.140638 -.0000001 44.523152 63.595329)" gradientUnits="userSpaceOnUse" r="21.166656" xlink:href="#a"/><radialGradient id="c" cx="450.908936" cy="189.579361" gradientTransform="matrix(-.00000017 .0781325 .140638 .0000001 -12.770119 -7.527482)" gradientUnits="userSpaceOnUse" r="21.166656" xlink:href="#a"/><radialGradient id="d" cx="450.908936" cy="189.579361" gradientTransform="matrix(-.00000017 -.0781325 .140638 -.0000001 -12.770119 63.595329)" gradientUnits="userSpaceOnUse" r="21.166656" xlink:href="#a"/><radialGradient id="e" cx="450.908936" cy="189.579361" gradientTransform="matrix(.00000017 .0781325 -.140638 .0000001 44.52315 -7.527483)" gradientUnits="userSpaceOnUse" r="21.166656" xlink:href="#a"/><linearGradient id="f" gradientTransform="matrix(.0133601 0 0 .062506 12.465386 13.438784)" gradientUnits="userSpaceOnUse" x1="255.323059" x2="255.323044" y1="233.5" y2="254.666656"><stop offset="0" stop-opacity=".27451"/><stop offset="1" stop-opacity="0"/></linearGradient><linearGradient id="g" gradientUnits="userSpaceOnUse" x1="254" x2="254" y1="-168.666672" y2="233.5"><stop offset="0" stop-color="#616161"/><stop offset="1" stop-color="#424242"/></linearGradient><linearGradient id="h" gradientUnits="userSpaceOnUse" x1="15.87648" x2="15.87648100882" y1="28.03387919623" y2="2.89611843548"><stop offset="0" stop-color="#ab47bc"/><stop offset="1" stop-color="#ba68c8"/></linearGradient><path d="m18.191406 28.035156h2.648438v-1.324218h-2.648438zm0 0" fill="url(#b)"/><path d="m13.5625 28.035156h-2.648438v1.320313h2.648438zm0 0" fill="url(#c)"/><path d="m13.5625 28.035156h-2.648438v-1.324218h2.648438zm0 0" fill="url(#d)"/><path d="m18.191406 28.035156h2.648438v1.320313h-2.648438zm0 0" fill="url(#e)"/><path d="m13.5625 27.703125h4.628906v1.652344h-4.628906zm0 0" fill="url(#f)"/><path d="m253.975747-168.691922c111.051895 0 201.105795 90.0539 201.105795 201.105795s-90.0539 201.105796-201.105795 201.105796c-111.051896 0-201.043302-90.053901-201.043302-201.105796s89.991406-201.105795 201.043302-201.105795zm0 0" fill="url(#g)" stroke="#333" stroke-linecap="round" stroke-width="3" transform="matrix(.062506 0 0 .062506 0 13.438783)"/><path d="m15.875 27.953125c-6.960938 0-12.566406-5.609375-12.566406-12.570313 0-.042968 0-.082031 0-.125.066406 6.90625 5.644531 12.445313 12.566406 12.445313s12.503906-5.539063 12.570312-12.445313v.125c0 6.960938-5.605468 12.570313-12.570312 12.570313zm0 0" fill-opacity=".196078"/><path d="m15.875 2.980469c-6.960938 0-12.566406 5.605469-12.566406 12.566406v.125c.066406-6.90625 5.644531-12.445313 12.566406-12.445313s12.503906 5.539063 12.570312 12.445313c0-.042969 0-.082031 0-.125 0-6.960937-5.605468-12.566406-12.570312-12.566406zm0 0" fill="#fff" fill-opacity=".392157"/><path d="m15.875 2.800781c-7.011719 0-12.660156 5.652344-12.660156 12.664063 0 7.011718 5.648437 12.664062 12.660156 12.664062 7.015625 0 12.664062-5.652344 12.664062-12.664062 0-7.011719-5.648437-12.664063-12.664062-12.664063zm0 .1875c6.914062 0 12.476562 5.5625 12.476562 12.476563 0 6.914062-5.5625 12.476562-12.476562 12.476562-6.910156 0-12.472656-5.5625-12.472656-12.476562 0-6.914063 5.5625-12.476563 12.472656-12.476563zm0 0" fill="#212121"/><path d="m7.9375 11.496094c-.730469 0-1.324219.589844-1.324219 1.324218v2.644532c0 .011718.003907.027344.003907.039062.023437 2.179688 2.078124 3.929688 4.628906 3.929688 1.652344 0 3.96875-.785156 3.96875-2.644532 0-.367187.296875-.664062.660156-.664062.367188 0 .664062.296875.664062.664062 0 1.859376 2.3125 2.644532 3.96875 2.644532 2.550782 0 4.605469-1.75 4.628907-3.929688 0-.011718 0-.027344 0-.039062v-2.644532c0-.734374-.589844-1.324218-1.320313-1.324218h-3.308594c-1.378906 0-2.609374.511718-3.457031 1.324218h-2.347656c-.847656-.8125-2.082031-1.324218-3.457031-1.324218zm3.308594 1.984375c1.464844 0 2.644531.886719 2.644531 1.984375 0 1.101562-1.179687 1.984375-2.644531 1.984375s-2.644532-.882813-2.644532-1.984375c0-1.097656 1.179688-1.984375 2.644532-1.984375zm9.261718 0c1.464844 0 2.644532.886719 2.644532 1.984375 0 1.101562-1.179688 1.984375-2.644532 1.984375-1.464843 0-2.648437-.882813-2.648437-1.984375 0-1.097656 1.183594-1.984375 2.648437-1.984375zm0 0" fill="url(#h)"/><path d="m7.9375 11.496094c-.730469 0-1.324219.589844-1.324219 1.324218v.496094c0-.734375.59375-1.324218 1.324219-1.324218h3.308594c1.375 0 2.609375.511718 3.457031 1.324218h2.347656c.847657-.8125 2.078125-1.324218 3.457031-1.324218h3.308594c.730469 0 1.320313.589843 1.320313 1.324218v-.496094c0-.734374-.589844-1.324218-1.320313-1.324218h-3.308594c-1.378906 0-2.609374.511718-3.457031 1.324218h-2.347656c-.847656-.8125-2.082031-1.324218-3.457031-1.324218zm.683594 4.21875c-.015625.078125-.019532.164062-.019532.246094 0 1.101562 1.179688 1.984374 2.644532 1.984374s2.644531-.882812 2.644531-1.984374c0-.082032-.003906-.167969-.019531-.246094-.160156.980468-1.269532 1.734375-2.625 1.734375-1.355469 0-2.464844-.753907-2.625-1.734375zm9.261718 0c-.015624.078125-.023437.164062-.023437.246094 0 1.101562 1.183594 1.984374 2.648437 1.984374 1.464844 0 2.644532-.882812 2.644532-1.984374 0-.082032-.007813-.167969-.019532-.246094-.160156.980468-1.273437 1.734375-2.625 1.734375-1.355468 0-2.464843-.753907-2.625-1.734375zm0 0" fill="#fff" fill-opacity=".392157"/><path d="m11.246094 13.480469c-1.464844 0-2.644532.886719-2.644532 1.984375 0 .113281.011719.222656.035157.332031.207031-.941406 1.292969-1.65625 2.609375-1.65625s2.402344.714844 2.609375 1.65625c.023437-.109375.035156-.21875.035156-.332031 0-1.097656-1.179687-1.984375-2.644531-1.984375zm9.261718 0c-1.464843 0-2.648437.886719-2.648437 1.984375 0 .113281.015625.222656.039063.332031.207031-.941406 1.292968-1.65625 2.609374-1.65625 1.316407 0 2.398438.714844 2.609376 1.65625.023437-.109375.035156-.21875.035156-.332031 0-1.097656-1.179688-1.984375-2.644532-1.984375zm-13.894531 1.984375v.660156c0 .015625.003907.027344.003907.039062.023437 2.183594 2.078124 3.929688 4.628906 3.929688 1.652344 0 3.96875-.78125 3.96875-2.644531 0-.367188.296875-.660157.660156-.660157.367188 0 .664062.292969.664062.660157 0 1.863281 2.3125 2.644531 3.96875 2.644531 2.550782 0 4.605469-1.746094 4.628907-3.929688 0-.011718 0-.023437 0-.039062v-.660156.039062c-.023438 2.179688-2.078125 3.929688-4.628907 3.929688-1.65625 0-3.96875-.785156-3.96875-2.644532 0-.367187-.296874-.664062-.664062-.664062-.363281 0-.660156.296875-.660156.664062 0 1.859376-2.316406 2.644532-3.96875 2.644532-2.550782 0-4.605469-1.75-4.628906-3.929688 0-.011718-.003907-.027344-.003907-.039062zm0 0" fill-opacity=".235294"/><path d="m126.987873-31.080063c-11.686384 0-21.185477 9.436598-21.185477 21.185476v42.30846c0 .187482.062494.437458.062494.62494.374965 34.87167 33.246825 62.868997 74.055428 62.868997 26.434976 0 63.493937-12.561301 63.493937-42.30846 0-5.874439 4.749547-10.623985 10.561492-10.623985 5.874439 0 10.623985 4.749546 10.623985 10.623985 0 29.747159 36.996467 42.30846 63.493937 42.30846 40.808603 0 73.680463-27.997327 74.055428-62.868997 0-.187482 0-.437458 0-.62494v-42.30846c0-11.748878-9.436599-21.185476-21.122983-21.185476h-52.932445c-22.060394 0-41.746014 8.186718-55.307219 21.185476h-37.558913c-13.561205-12.998758-33.309319-21.185476-55.307219-21.185476zm52.932445 31.746968c23.435263 0 42.30846 14.186145 42.30846 31.746968 0 17.623317-18.873197 31.746968-42.30846 31.746968-23.435262 0-42.308459-14.123651-42.308459-31.746968 0-17.560823 18.873197-31.746968 42.308459-31.746968zm148.173351 0c23.435262 0 42.308459 14.186145 42.308459 31.746968 0 17.623317-18.873197 31.746968-42.308459 31.746968s-42.370954-14.123651-42.370954-31.746968c0-17.560823 18.935692-31.746968 42.370954-31.746968zm0 0" fill="none" stroke="#212121" stroke-linecap="round" stroke-linejoin="round" stroke-width="3" transform="matrix(.062506 0 0 .062506 0 13.438783)"/></svg>

<?xml version="1.0" encoding="UTF-8"?>
<svg xmlns="http://www.w3.org/2000/svg" xmlns:xlink="http://www.w3.org/1999/xlink" width="32px" height="32px" viewBox="0 0 32 32" version="1.1">
<defs>
<radialGradient id="radial0" gradientUnits="userSpaceOnUse" cx="450.908936" cy="189.579361" fx="450.908936" fy="189.579361" r="21.166656" gradientTransform="matrix(0.00000017417,-0.0781325,-0.140638,-0.000000101539,44.523152,63.595329)">
<stop offset="0" style="stop-color:rgb(0%,0%,0%);stop-opacity:0.313726;"/>
<stop offset="0.222222" style="stop-color:rgb(0%,0%,0%);stop-opacity:0.27451;"/>
<stop offset="1" style="stop-color:rgb(0%,0%,0%);stop-opacity:0;"/>
</radialGradient>
<radialGradient id="radial1" gradientUnits="userSpaceOnUse" cx="450.908936" cy="189.579361" fx="450.908936" fy="189.579361" r="21.166656" gradientTransform="matrix(-0.00000017417,0.0781325,0.140638,0.000000101539,-12.770119,-7.527482)">
<stop offset="0" style="stop-color:rgb(0%,0%,0%);stop-opacity:0.313726;"/>
<stop offset="0.222222" style="stop-color:rgb(0%,0%,0%);stop-opacity:0.27451;"/>
<stop offset="1" style="stop-color:rgb(0%,0%,0%);stop-opacity:0;"/>
</radialGradient>
<radialGradient id="radial2" gradientUnits="userSpaceOnUse" cx="450.908936" cy="189.579361" fx="450.908936" fy="189.579361" r="21.166656" gradientTransform="matrix(-0.00000017417,-0.0781325,0.140638,-0.000000101539,-12.770119,63.595329)">
<stop offset="0" style="stop-color:rgb(0%,0%,0%);stop-opacity:0.313726;"/>
<stop offset="0.222222" style="stop-color:rgb(0%,0%,0%);stop-opacity:0.27451;"/>
<stop offset="1" style="stop-color:rgb(0%,0%,0%);stop-opacity:0;"/>
</radialGradient>
<radialGradient id="radial3" gradientUnits="userSpaceOnUse" cx="450.908936" cy="189.579361" fx="450.908936" fy="189.579361" r="21.166656" gradientTransform="matrix(0.00000017417,0.0781325,-0.140638,0.000000101539,44.52315,-7.527483)">
<stop offset="0" style="stop-color:rgb(0%,0%,0%);stop-opacity:0.313726;"/>
<stop offset="0.222222" style="stop-color:rgb(0%,0%,0%);stop-opacity:0.27451;"/>
<stop offset="1" style="stop-color:rgb(0%,0%,0%);stop-opacity:0;"/>
</radialGradient>
<linearGradient id="linear0" gradientUnits="userSpaceOnUse" x1="255.323059" y1="233.5" x2="255.323044" y2="254.666656" gradientTransform="matrix(0.0133601,0,0,0.062506,12.465386,13.438784)">
<stop offset="0" style="stop-color:rgb(0%,0%,0%);stop-opacity:0.27451;"/>
<stop offset="1" style="stop-color:rgb(0%,0%,0%);stop-opacity:0;"/>
</linearGradient>
<linearGradient id="linear1" gradientUnits="userSpaceOnUse" x1="254" y1="-168.666672" x2="254" y2="233.5" >
<stop offset="0" style="stop-color:rgb(38.039216%,38.039216%,38.039216%);stop-opacity:1;"/>
<stop offset="1" style="stop-color:rgb(25.882354%,25.882354%,25.882354%);stop-opacity:1;"/>
</linearGradient>
<linearGradient id="linear2" gradientUnits="userSpaceOnUse" x1="960" y1="1695.118164" x2="960.000061" y2="175.118118" gradientTransform="matrix(0.016538,0,0,0.016538,0.0000000229189,0.0000152602)">
<stop offset="0" style="stop-color:rgb(67.058825%,27.843139%,73.725492%);stop-opacity:1;"/>
<stop offset="1" style="stop-color:rgb(72.941178%,40.784314%,78.431374%);stop-opacity:1;"/>
</linearGradient>
</defs>
<g id="surface1">
<path style=" stroke:none;fill-rule:nonzero;fill:url(#radial0);" d="M 18.191406 28.035156 L 20.839844 28.035156 L 20.839844 26.710938 L 18.191406 26.710938 Z M 18.191406 28.035156 "/>
<path style=" stroke:none;fill-rule:nonzero;fill:url(#radial1);" d="M 13.5625 28.035156 L 10.914062 28.035156 L 10.914062 29.355469 L 13.5625 29.355469 Z M 13.5625 28.035156 "/>
<path style=" stroke:none;fill-rule:nonzero;fill:url(#radial2);" d="M 13.5625 28.035156 L 10.914062 28.035156 L 10.914062 26.710938 L 13.5625 26.710938 Z M 13.5625 28.035156 "/>
<path style=" stroke:none;fill-rule:nonzero;fill:url(#radial3);" d="M 18.191406 28.035156 L 20.839844 28.035156 L 20.839844 29.355469 L 18.191406 29.355469 Z M 18.191406 28.035156 "/>
<path style=" stroke:none;fill-rule:nonzero;fill:url(#linear0);" d="M 13.5625 27.703125 L 18.191406 27.703125 L 18.191406 29.355469 L 13.5625 29.355469 Z M 13.5625 27.703125 "/>
<path style="fill-rule:nonzero;fill:url(#linear1);stroke-width:3;stroke-linecap:round;stroke-linejoin:miter;stroke:rgb(20%,20%,20%);stroke-opacity:1;stroke-miterlimit:4;" d="M 253.975747 -168.691922 C 365.027642 -168.691922 455.081542 -78.638022 455.081542 32.413873 C 455.081542 143.465768 365.027642 233.519669 253.975747 233.519669 C 142.923851 233.519669 52.932445 143.465768 52.932445 32.413873 C 52.932445 -78.638022 142.923851 -168.691922 253.975747 -168.691922 Z M 253.975747 -168.691922 " transform="matrix(0.062506,0,0,0.062506,0,13.438783)"/>
<path style=" stroke:none;fill-rule:nonzero;fill:rgb(0%,0%,0%);fill-opacity:0.196078;" d="M 15.875 27.953125 C 8.914062 27.953125 3.308594 22.34375 3.308594 15.382812 C 3.308594 15.339844 3.308594 15.300781 3.308594 15.257812 C 3.375 22.164062 8.953125 27.703125 15.875 27.703125 C 22.796875 27.703125 28.378906 22.164062 28.445312 15.257812 C 28.445312 15.300781 28.445312 15.339844 28.445312 15.382812 C 28.445312 22.34375 22.839844 27.953125 15.875 27.953125 Z M 15.875 27.953125 "/>
<path style=" stroke:none;fill-rule:nonzero;fill:rgb(100%,100%,100%);fill-opacity:0.392157;" d="M 15.875 2.980469 C 8.914062 2.980469 3.308594 8.585938 3.308594 15.546875 C 3.308594 15.589844 3.308594 15.628906 3.308594 15.671875 C 3.375 8.765625 8.953125 3.226562 15.875 3.226562 C 22.796875 3.226562 28.378906 8.765625 28.445312 15.671875 C 28.445312 15.628906 28.445312 15.589844 28.445312 15.546875 C 28.445312 8.585938 22.839844 2.980469 15.875 2.980469 Z M 15.875 2.980469 "/>
<path style=" stroke:none;fill-rule:nonzero;fill:rgb(12.941177%,12.941177%,12.941177%);fill-opacity:1;" d="M 15.875 2.800781 C 8.863281 2.800781 3.214844 8.453125 3.214844 15.464844 C 3.214844 22.476562 8.863281 28.128906 15.875 28.128906 C 22.890625 28.128906 28.539062 22.476562 28.539062 15.464844 C 28.539062 8.453125 22.890625 2.800781 15.875 2.800781 Z M 15.875 2.988281 C 22.789062 2.988281 28.351562 8.550781 28.351562 15.464844 C 28.351562 22.378906 22.789062 27.941406 15.875 27.941406 C 8.964844 27.941406 3.402344 22.378906 3.402344 15.464844 C 3.402344 8.550781 8.964844 2.988281 15.875 2.988281 Z M 15.875 2.988281 "/>
<path style=" stroke:none;fill-rule:nonzero;fill:url(#linear2);" d="M 7.9375 11.496094 C 7.207031 11.496094 6.613281 12.085938 6.613281 12.820312 L 6.613281 15.464844 C 6.613281 15.476562 6.617188 15.492188 6.617188 15.503906 C 6.640625 17.683594 8.695312 19.433594 11.246094 19.433594 C 12.898438 19.433594 15.214844 18.648438 15.214844 16.789062 C 15.214844 16.421875 15.511719 16.125 15.875 16.125 C 16.242188 16.125 16.539062 16.421875 16.539062 16.789062 C 16.539062 18.648438 18.851562 19.433594 20.507812 19.433594 C 23.058594 19.433594 25.113281 17.683594 25.136719 15.503906 C 25.136719 15.492188 25.136719 15.476562 25.136719 15.464844 L 25.136719 12.820312 C 25.136719 12.085938 24.546875 11.496094 23.816406 11.496094 L 20.507812 11.496094 C 19.128906 11.496094 17.898438 12.007812 17.050781 12.820312 L 14.703125 12.820312 C 13.855469 12.007812 12.621094 11.496094 11.246094 11.496094 Z M 11.246094 13.480469 C 12.710938 13.480469 13.890625 14.367188 13.890625 15.464844 C 13.890625 16.566406 12.710938 17.449219 11.246094 17.449219 C 9.78125 17.449219 8.601562 16.566406 8.601562 15.464844 C 8.601562 14.367188 9.78125 13.480469 11.246094 13.480469 Z M 20.507812 13.480469 C 21.972656 13.480469 23.152344 14.367188 23.152344 15.464844 C 23.152344 16.566406 21.972656 17.449219 20.507812 17.449219 C 19.042969 17.449219 17.859375 16.566406 17.859375 15.464844 C 17.859375 14.367188 19.042969 13.480469 20.507812 13.480469 Z M 20.507812 13.480469 "/>
<path style=" stroke:none;fill-rule:nonzero;fill:rgb(100%,100%,100%);fill-opacity:0.392157;" d="M 7.9375 11.496094 C 7.207031 11.496094 6.613281 12.085938 6.613281 12.820312 L 6.613281 13.316406 C 6.613281 12.582031 7.207031 11.992188 7.9375 11.992188 L 11.246094 11.992188 C 12.621094 11.992188 13.855469 12.503906 14.703125 13.316406 L 17.050781 13.316406 C 17.898438 12.503906 19.128906 11.992188 20.507812 11.992188 L 23.816406 11.992188 C 24.546875 11.992188 25.136719 12.582031 25.136719 13.316406 L 25.136719 12.820312 C 25.136719 12.085938 24.546875 11.496094 23.816406 11.496094 L 20.507812 11.496094 C 19.128906 11.496094 17.898438 12.007812 17.050781 12.820312 L 14.703125 12.820312 C 13.855469 12.007812 12.621094 11.496094 11.246094 11.496094 Z M 8.621094 15.714844 C 8.605469 15.792969 8.601562 15.878906 8.601562 15.960938 C 8.601562 17.0625 9.78125 17.945312 11.246094 17.945312 C 12.710938 17.945312 13.890625 17.0625 13.890625 15.960938 C 13.890625 15.878906 13.886719 15.792969 13.871094 15.714844 C 13.710938 16.695312 12.601562 17.449219 11.246094 17.449219 C 9.890625 17.449219 8.78125 16.695312 8.621094 15.714844 Z M 17.882812 15.714844 C 17.867188 15.792969 17.859375 15.878906 17.859375 15.960938 C 17.859375 17.0625 19.042969 17.945312 20.507812 17.945312 C 21.972656 17.945312 23.152344 17.0625 23.152344 15.960938 C 23.152344 15.878906 23.144531 15.792969 23.132812 15.714844 C 22.972656 16.695312 21.859375 17.449219 20.507812 17.449219 C 19.152344 17.449219 18.042969 16.695312 17.882812 15.714844 Z M 17.882812 15.714844 "/>
<path style=" stroke:none;fill-rule:nonzero;fill:rgb(0%,0%,0%);fill-opacity:0.235294;" d="M 11.246094 13.480469 C 9.78125 13.480469 8.601562 14.367188 8.601562 15.464844 C 8.601562 15.578125 8.613281 15.6875 8.636719 15.796875 C 8.84375 14.855469 9.929688 14.140625 11.246094 14.140625 C 12.5625 14.140625 13.648438 14.855469 13.855469 15.796875 C 13.878906 15.6875 13.890625 15.578125 13.890625 15.464844 C 13.890625 14.367188 12.710938 13.480469 11.246094 13.480469 Z M 20.507812 13.480469 C 19.042969 13.480469 17.859375 14.367188 17.859375 15.464844 C 17.859375 15.578125 17.875 15.6875 17.898438 15.796875 C 18.105469 14.855469 19.191406 14.140625 20.507812 14.140625 C 21.824219 14.140625 22.90625 14.855469 23.117188 15.796875 C 23.140625 15.6875 23.152344 15.578125 23.152344 15.464844 C 23.152344 14.367188 21.972656 13.480469 20.507812 13.480469 Z M 6.613281 15.464844 L 6.613281 16.125 C 6.613281 16.140625 6.617188 16.152344 6.617188 16.164062 C 6.640625 18.347656 8.695312 20.09375 11.246094 20.09375 C 12.898438 20.09375 15.214844 19.3125 15.214844 17.449219 C 15.214844 17.082031 15.511719 16.789062 15.875 16.789062 C 16.242188 16.789062 16.539062 17.082031 16.539062 17.449219 C 16.539062 19.3125 18.851562 20.09375 20.507812 20.09375 C 23.058594 20.09375 25.113281 18.347656 25.136719 16.164062 C 25.136719 16.152344 25.136719 16.140625 25.136719 16.125 L 25.136719 15.464844 C 25.136719 15.476562 25.136719 15.492188 25.136719 15.503906 C 25.113281 17.683594 23.058594 19.433594 20.507812 19.433594 C 18.851562 19.433594 16.539062 18.648438 16.539062 16.789062 C 16.539062 16.421875 16.242188 16.125 15.875 16.125 C 15.511719 16.125 15.214844 16.421875 15.214844 16.789062 C 15.214844 18.648438 12.898438 19.433594 11.246094 19.433594 C 8.695312 19.433594 6.640625 17.683594 6.617188 15.503906 C 6.617188 15.492188 6.613281 15.476562 6.613281 15.464844 Z M 6.613281 15.464844 "/>
<path style="fill:none;stroke-width:3;stroke-linecap:round;stroke-linejoin:round;stroke:rgb(12.941177%,12.941177%,12.941177%);stroke-opacity:1;stroke-miterlimit:4;" d="M 126.987873 -31.080063 C 115.301489 -31.080063 105.802396 -21.643465 105.802396 -9.894587 L 105.802396 32.413873 C 105.802396 32.601355 105.86489 32.851331 105.86489 33.038813 C 106.239855 67.910483 139.111715 95.90781 179.920318 95.90781 C 206.355294 95.90781 243.414255 83.346509 243.414255 53.59935 C 243.414255 47.724911 248.163802 42.975365 253.975747 42.975365 C 259.850186 42.975365 264.599732 47.724911 264.599732 53.59935 C 264.599732 83.346509 301.596199 95.90781 328.093669 95.90781 C 368.902272 95.90781 401.774132 67.910483 402.149097 33.038813 C 402.149097 32.851331 402.149097 32.601355 402.149097 32.413873 L 402.149097 -9.894587 C 402.149097 -21.643465 392.712498 -31.080063 381.026114 -31.080063 L 328.093669 -31.080063 C 306.033275 -31.080063 286.347655 -22.893345 272.78645 -9.894587 L 235.227537 -9.894587 C 221.666332 -22.893345 201.918218 -31.080063 179.920318 -31.080063 Z M 179.920318 0.666905 C 203.355581 0.666905 222.228778 14.85305 222.228778 32.413873 C 222.228778 50.03719 203.355581 64.160841 179.920318 64.160841 C 156.485056 64.160841 137.611859 50.03719 137.611859 32.413873 C 137.611859 14.85305 156.485056 0.666905 179.920318 0.666905 Z M 328.093669 0.666905 C 351.528931 0.666905 370.402128 14.85305 370.402128 32.413873 C 370.402128 50.03719 351.528931 64.160841 328.093669 64.160841 C 304.658407 64.160841 285.722715 50.03719 285.722715 32.413873 C 285.722715 14.85305 304.658407 0.666905 328.093669 0.666905 Z M 328.093669 0.666905 " transform="matrix(0.062506,0,0,0.062506,0,13.438783)"/>
</g>
</svg>
